symbolic/32x32/apps/org.freedesktop.Piper.svg

<svg xmlns="http://www.w3.org/2000/svg" width="32" height="32" version="1">
 <rect style="opacity:0.2" width="28" height="25" x="-31" y="-28" rx="1.4" ry="1.389" transform="matrix(0,-1,-1,0,0,0)"/>
 <rect style="fill:#976e2e" width="28" height="25" x="-30" y="-28" rx="1.4" ry="1.389" transform="matrix(0,-1,-1,0,0,0)"/>
 <path style="opacity:0.1" d="M 8.0357143,6 C 6.9079286,6 6,6.9663333 6,8.1666667 V 14.666667 16.833333 19 H 8.0357143 22.964286 25 V 16.833333 14.666667 8.1666667 C 25,6.9663333 24.092071,6 22.964286,6 Z M 8,8 H 23 V 14.666667 17 H 8 v -2.333333 z"/>
 <path style="opacity:0.2" d="M 13.325521,22 C 12.666557,22 12,22.699922 12,23.413672 V 29 h 4 a 1.3333332,1.4 0 0 1 1.333333,-1.4 1.3333332,1.4 0 0 1 0.114583,0.0055 1.9999998,2.1 0 0 1 1.885417,-1.40546 A 1.9999998,2.1 0 0 1 20,26.32172 V 22 Z"/>
 <path style="fill:#c3c3c3" d="M 8.0357143,5 C 6.9079286,5 6,5.9663333 6,7.1666667 V 13.666667 15.833333 18 H 8.0357143 22.964286 25 V 15.833333 13.666667 7.1666667 C 25,5.9663333 24.092071,5 22.964286,5 Z M 8,7 H 23 V 13.666667 16 H 8 v -2.333333 z"/>
 <path style="opacity:0.2;fill:#ffffff" d="M 8.0351562 5 C 6.9073705 5 6 5.9656822 6 7.1660156 L 6 8.1660156 C 6 6.9656822 6.9073705 6 8.0351562 6 L 22.964844 6 C 24.092629 6 25 6.9656822 25 8.1660156 L 25 7.1660156 C 25 5.9656822 24.092629 5 22.964844 5 L 8.0351562 5 z M 8 16 L 8 17 L 23 17 L 23 16 L 8 16 z"/>
 <rect style="fill:#a4a4a4" width="1" height="6" x="15" y="17"/>
 <path style="fill:none;stroke:#c3c3c3;stroke-width:1.39443338;stroke-linecap:round" d="m 13.088093,18.293042 0.694445,-3.5"/>
 <path style="fill:none;stroke:#c3c3c3;stroke-width:1.39443338;stroke-linecap:round" d="m 15.865871,18.293042 0.694445,-3.5"/>
 <path style="fill:none;stroke:#c3c3c3;stroke-width:1.39443338;stroke-linecap:round" d="m 18.643649,18.293042 0.694444,-3.5"/>
 <path style="fill:#ffb22b" d="M 13.325521,21 C 12.666557,21 12,21.699922 12,22.413672 V 28 h 4 a 1.3333332,1.4 0 0 1 1.333333,-1.4 1.3333332,1.4 0 0 1 0.114583,0.0055 1.9999998,2.1 0 0 1 1.885417,-1.40546 A 1.9999998,2.1 0 0 1 20,25.32172 V 21 Z"/>
 <circle style="opacity:0.2" cx="13.75" cy="26.25" r=".75"/>
 <path style="opacity:0.2;fill:none;stroke:#000000;stroke-width:1.39443338;stroke-linecap:round" d="m 11.699205,19.293042 0.694444,-3.5"/>
 <path style="fill:none;stroke:#eaeaea;stroke-width:1.39443338;stroke-linecap:round" d="m 11.699205,18.293042 0.694444,-3.5"/>
 <path style="opacity:0.2;fill:none;stroke:#000000;stroke-width:1.39443338;stroke-linecap:round" d="m 14.476982,19.293042 0.694445,-3.5"/>
 <path style="fill:none;stroke:#eaeaea;stroke-width:1.39443338;stroke-linecap:round" d="m 14.476982,18.293042 0.694445,-3.5"/>
 <path style="opacity:0.2;fill:none;stroke:#000000;stroke-width:1.39443338;stroke-linecap:round" d="m 17.25476,19.293042 0.694445,-3.5"/>
 <path style="fill:none;stroke:#eaeaea;stroke-width:1.39443338;stroke-linecap:round" d="m 17.25476,18.293042 0.694445,-3.5"/>
 <path style="opacity:0.2" d="M 13.326172 21 C 12.667208 21 12 21.700312 12 22.414062 L 12 23.730469 A 2 2 0 0 0 13 24 A 2 2 0 0 0 15 22 A 2 2 0 0 0 14.728516 21 L 13.326172 21 z"/>
 <path style="opacity:0.2" d="M 19.5 22 A 1.5 1.5 0 0 0 18 23.5 A 1.5 1.5 0 0 0 19.5 25 A 1.5 1.5 0 0 0 20 24.912109 L 20 22.087891 A 1.5 1.5 0 0 0 19.5 22 z"/>
 <path style="opacity:0.1" d="M 13.75 25.5 A 0.75 0.75 0 0 0 13 26.25 A 0.75 0.75 0 0 0 13.191406 26.75 A 0.75 0.75 0 0 1 13.75 26.5 A 0.75 0.75 0 0 1 14.308594 26.75 A 0.75 0.75 0 0 0 14.5 26.25 A 0.75 0.75 0 0 0 13.75 25.5 z"/>
 <path style="opacity:0.1" d="M 13.326172 21 C 12.667208 21 12 21.700312 12 22.414062 L 12 23.414062 C 12 22.700312 12.667208 22 13.326172 22 L 14.728516 22 A 2 2 0 0 1 14.933594 22.507812 A 2 2 0 0 0 15 22 A 2 2 0 0 0 14.728516 21 L 13.326172 21 z"/>
 <path style="opacity:0.1" d="M 19.5 22 A 1.5 1.5 0 0 0 18 23.5 A 1.5 1.5 0 0 0 18.087891 24 A 1.5 1.5 0 0 1 19.5 23 A 1.5 1.5 0 0 1 20 23.087891 L 20 22.087891 A 1.5 1.5 0 0 0 19.5 22 z"/>
 <path style="fill:#ffffff;opacity:0.1" d="M 4.3886719 2 C 3.6192275 2 3 2.6247906 3 3.4003906 L 3 4.4003906 C 3 3.6247906 3.6192275 3 4.3886719 3 L 26.611328 3 C 27.380773 3 28 3.6247906 28 4.4003906 L 28 3.4003906 C 28 2.6247906 27.380773 2 26.611328 2 L 4.3886719 2 z"/>
</svg>

<svg xmlns="http://www.w3.org/2000/svg" width="32" height="32" version="1"><rect style="opacity:.2" width="28" height="25" x="-31" y="-28" rx="1.4" ry="1.389" transform="matrix(0 -1 -1 0 0 0)"/><rect style="fill:#976e2e" width="28" height="25" x="-30" y="-28" rx="1.4" ry="1.389" transform="matrix(0 -1 -1 0 0 0)"/><path style="opacity:.1" d="M8.036 6C6.908 6 6 6.966 6 8.167V19H25V8.167C25 6.967 24.092 6 22.964 6zM8 8h15v9H8v-2.333z"/><path style="opacity:.2" d="M13.326 22c-.66 0-1.326.7-1.326 1.414V29h4a1.333 1.4 0 0 1 1.333-1.4 1.333 1.4 0 0 1 .115.005 2 2.1 0 0 1 1.885-1.405 2 2.1 0 0 1 .667.122V22z"/><path style="fill:#c3c3c3" d="M8.036 5C6.908 5 6 5.966 6 7.167V18H25V7.167C25 5.967 24.092 5 22.964 5zM8 7h15v9H8v-2.333z"/><path style="opacity:.2;fill:#fff" d="M8.035 5C6.907 5 6 5.966 6 7.166v1C6 6.966 6.907 6 8.035 6h14.93C24.093 6 25 6.966 25 8.166v-1C25 5.966 24.093 5 22.965 5H8.035zM8 16v1h15v-1H8z"/><path style="fill:#a4a4a4" d="M15 17h1v6h-1z"/><path style="fill:none;stroke:#c3c3c3;stroke-width:1.39443338;stroke-linecap:round" d="m13.088 18.293.695-3.5M15.866 18.293l.694-3.5M18.644 18.293l.694-3.5"/><path style="fill:#ffb22b" d="M13.326 21c-.66 0-1.326.7-1.326 1.414V28h4a1.333 1.4 0 0 1 1.333-1.4 1.333 1.4 0 0 1 .115.005 2 2.1 0 0 1 1.885-1.405 2 2.1 0 0 1 .667.122V21z"/><circle style="opacity:.2" cx="13.75" cy="26.25" r=".75"/><path style="opacity:.2;fill:none;stroke:#000;stroke-width:1.39443338;stroke-linecap:round" d="m11.7 19.293.694-3.5"/><path style="fill:none;stroke:#eaeaea;stroke-width:1.39443338;stroke-linecap:round" d="m11.7 18.293.694-3.5"/><path style="opacity:.2;fill:none;stroke:#000;stroke-width:1.39443338;stroke-linecap:round" d="m14.477 19.293.694-3.5"/><path style="fill:none;stroke:#eaeaea;stroke-width:1.39443338;stroke-linecap:round" d="m14.477 18.293.694-3.5"/><path style="opacity:.2;fill:none;stroke:#000;stroke-width:1.39443338;stroke-linecap:round" d="m17.255 19.293.694-3.5"/><path style="fill:none;stroke:#eaeaea;stroke-width:1.39443338;stroke-linecap:round" d="m17.255 18.293.694-3.5"/><path style="opacity:.2" d="M13.326 21c-.659 0-1.326.7-1.326 1.414v1.316a2 2 0 0 0 1 .27 2 2 0 0 0 2-2 2 2 0 0 0-.271-1h-1.403zM19.5 22a1.5 1.5 0 0 0-1.5 1.5 1.5 1.5 0 0 0 1.5 1.5 1.5 1.5 0 0 0 .5-.088v-2.824a1.5 1.5 0 0 0-.5-.088z"/><path style="opacity:.1" d="M13.75 25.5a.75.75 0 0 0-.75.75.75.75 0 0 0 .191.5.75.75 0 0 1 .559-.25.75.75 0 0 1 .559.25.75.75 0 0 0 .191-.5.75.75 0 0 0-.75-.75zM13.326 21c-.659 0-1.326.7-1.326 1.414v1C12 22.7 12.667 22 13.326 22h1.403a2 2 0 0 1 .205.508A2 2 0 0 0 15 22a2 2 0 0 0-.271-1h-1.403zM19.5 22a1.5 1.5 0 0 0-1.5 1.5 1.5 1.5 0 0 0 .088.5 1.5 1.5 0 0 1 1.412-1 1.5 1.5 0 0 1 .5.088v-1a1.5 1.5 0 0 0-.5-.088z"/><path style="fill:#fff;opacity:.1" d="M4.389 2C3.619 2 3 2.625 3 3.4v1C3 3.625 3.62 3 4.389 3H26.61C27.381 3 28 3.625 28 4.4v-1c0-.775-.62-1.4-1.389-1.4H4.39z"/></svg>
